

//////////// premenne
// 1.

b
b = 8
b

b + 2

// vsetky male pismena je mozne pouzit ako premenne

s = Server.local // default
// premenna 's' je rezervovana pre audio server




// 2.
// lokalna
// premenne pomocou 'var' mozu byt len v bloku
// vyhoda je ze mozu mat dlhsi nazov, s malym zaciatocnym pismenom
(
	var signal, motiv, pocasie;
	pocasie = "zamracene";
	pocasie.postln;
	pocasie.scramble.postln;
)

//3.
// globlna

~pocasie = "pekne"

~pocasie.postln;
